assets/build/img/icons/gourmet.svg

<?xml version="1.0" encoding="UTF-8"?>
<svg width="24px" height="24px" viewBox="0 0 24 24" version="1.1" xmlns="http://www.w3.org/2000/svg" xmlns:xlink="http://www.w3.org/1999/xlink">
    <!-- Generator: sketchtool 51.3 (57544) - http://www.bohemiancoding.com/sketch -->
    <title>DF609D83-621F-4E94-AE80-36D388D7B0BB</title>
    <desc>Created with sketchtool.</desc>
    <defs></defs>
    <g id="Symbols" stroke="none" stroke-width="1" fill="none" fill-rule="evenodd">
        <g id="icon/cinza/gourmet" fill="#D8D8D8" fill-rule="nonzero" stroke="#D8D8D8" stroke-width="1.43">
            <path d="M13.775,13.1 C14.567769,11.9879885 14.9973359,10.6379212 15,9.25000003 C14.9996203,7.28442782 14.490051,5.35581218 13.525625,3.66979171 L12.2503125,1.44458338 C12.0920694,1.16865384 11.8072682,0.999900322 11.5,1.00000004 L4.5,1.00000004 C4.19273182,0.999900322 3.9079306,1.16865384 3.7496875,1.44458338 L2.474375,3.66979171 C1.50994899,5.35581218 1.00037972,7.28442782 1,9.25000003 C1,12.7938272 3.74225591,15.6666667 7.125,15.6666667 L7.125,21.1666667 L4.5,21.1666667 C4.01675084,21.1666667 3.625,21.5770723 3.625,22.0833333 C3.625,22.5895944 4.01675084,23 4.5,23 L11.5,23 C11.9832492,23 12.375,22.5895944 12.375,22.0833333 C12.375,21.5770723 11.9832492,21.1666667 11.5,21.1666667 L8.875,21.1666667 L8.875,15.6666667 C10.8017546,15.6616486 12.6151153,14.711793 13.775,13.1 Z M3.975,4.62083337 L4.9965625,2.83333337 L11.0034375,2.83333337 L12.025,4.61395837 C12.5135216,5.48185012 12.8602696,6.42911389 13.0509375,7.4166667 L2.9490625,7.4166667 C3.13973038,6.42911389 3.48647835,5.48185012 3.975,4.61395837 L3.975,4.62083337 Z M3.625,12 C3.05871646,11.205717 2.75188072,10.2413761 2.75,9.25000003 L13.25,9.25000003 C13.25,10.4655756 12.7890638,11.6313644 11.9685922,12.4909061 C11.1481205,13.3504478 10.0353221,13.8333334 8.875,13.8333334 L7.125,13.8333334 C5.74874673,13.829749 4.45348908,13.1512807 3.625,12 Z" id="Shape"></path>
        </g>
    </g>
</svg>

<svg width="24" height="24" xmlns="http://www.w3.org/2000/svg"><path d="M13.775 13.1A6.66 6.66 0 0 0 15 9.25c0-1.966-.51-3.894-1.474-5.58L12.25 1.445A.868.868 0 0 0 11.5 1h-7a.868.868 0 0 0-.75.445L2.474 3.67A11.254 11.254 0 0 0 1 9.25c0 3.544 2.742 6.417 6.125 6.417v5.5H4.5c-.483 0-.875.41-.875.916 0 .507.392.917.875.917h7c.483 0 .875-.41.875-.917 0-.506-.392-.916-.875-.916H8.875v-5.5c1.927-.005 3.74-.955 4.9-2.567zm-9.8-8.48l1.022-1.787h6.006l1.022 1.781a9.315 9.315 0 0 1 1.026 2.803H2.949a9.315 9.315 0 0 1 1.026-2.803v.007zM3.625 12a4.757 4.757 0 0 1-.875-2.75h10.5a4.69 4.69 0 0 1-1.281 3.24 4.277 4.277 0 0 1-3.094 1.343h-1.75c-1.376-.003-2.672-.682-3.5-1.833z" fill="#D8D8D8" stroke="#D8D8D8" stroke-width="1.43"/></svg>
